svgs/sharp-regular/upload.svg

<svg xmlns="http://www.w3.org/2000/svg" viewBox="0 0 512 512"><!--! Font Awesome Pro 6.6.0 by @fontawesome - https://fontawesome.com License - https://fontawesome.com/license (Commercial License) Copyright 2024 Fonticons, Inc. --><path d="M280 360l0 24-48 0 0-24 0-262.1-95 95-17 17L86.1 176l17-17L239 23l17-17 17 17L409 159l17 17L392 209.9l-17-17-95-95L280 360zm32-8l0-48 152 0 48 0 0 48 0 112 0 48-48 0L48 512 0 512l0-48L0 352l0-48 48 0 152 0 0 48L48 352l0 112 416 0 0-112-152 0zm72 56a24 24 0 1 1 48 0 24 24 0 1 1 -48 0z"/></svg>

<svg xmlns="http://www.w3.org/2000/svg" viewBox="0 0 512 512"><!--! Font Awesome Pro 6.4.0 by @fontawesome - https://fontawesome.com License - https://fontawesome.com/license (Commercial License) Copyright 2023 Fonticons, Inc. --><path d="M280 360v24H232V360 97.9l-95 95-17 17L86.1 176l17-17L239 23l17-17 17 17L409 159l17 17L392 209.9l-17-17-95-95V360zm32-8V304H464h48v48V464v48H464 48 0V464 352 304H48 200v48H48V464H464V352H312zm72 56a24 24 0 1 1 48 0 24 24 0 1 1 -48 0z"/></svg>
